16x16/apps/syncplay.svg

<svg height="16" width="16" xmlns="http://www.w3.org/2000/svg"><path d="m15.703 0c-.338-.001-.974.066-1.69.171-.864.127-1.458.87-2.16 1.05-5.693 1.462-9.548 3.959-10.86 7.908-.438 1.319-.28 2.8-.062 3.518.33 1.084 1.932 1.666 3.347 2.17.778.278.312.997 1.48 1.114.226.023.452.041.677.055.735.046 2.519-.027 3.107-.126 2.112-.355 3.821-1.307 4.899-2.729.789-1.04 1.282-2.453.965-2.768-.112-.113-.237-.068-.436.155-.421.475-1.244 1.005-1.995 1.318-.485.196-1.388.335-1.893.266l.148-.513.332-.45c1.289-.116 2.425-.861 3.101-1.788.644-.9 1.095-2.221 1.114-3.263.008-.466-.01-.597-.096-.682a.222.222 0 0 0 -.064-.051c-.06-.025-.12.036-.309.251-.95 1.056-2.41 2.087-3.554 2.706l-.586-.364.203-.524c.522-.306 1.234-.716 1.72-1.048 1.66-1.144 2.672-3.177 2.889-5.8.036-.434.027-.522-.055-.553a.747.747 0 0 0 -.222-.023z" fill="#d81b60"/><path d="m14.239.145c-.92.127-2.001.317-2.772.515-.198.051-.395.104-.589.159-5.376 1.518-7.463 4.5-8.729 8.31-.438 1.319-.981 3.15-.762 3.869.258.848-.472 1.462.44 1.945.253.134.533.256.84.365.854.305 2.151.543 3.435.648a20 20 0 0 0 6.484-8.114c-.213.132-.624.358-.832.47l-.586-.364.202-.525c.523-.305 1.235-.715 1.721-1.047l.07-.052a20 20 0 0 0 1.079-6.179z" fill="#fd5450"/><path d="m11.13.755c-1.176.319-2.276.707-3.29 1.158-3.74 1.662-4.505 3.894-5.516 6.937-.266.802-2.264 2.062-2.311 2.868-.03.517-.008.963.078 1.245.272.895.894 1.565 1.897 2.057a16 16 0 0 0 9.142-14.265z" fill="#ff9e21"/><path d="m8.077 1.81c-3.865 1.661-6.542 4.213-7.574 7.32a10.582 10.582 0 0 0 -.497 2.815 12 12 0 0 0 8.071-10.135z" fill="#fdd835"/><g fill="#f4f4f7"><path d="m7.5 5a4.5 4.5 0 0 0 -4.5 4.5 4.5 4.5 0 0 0 4.5 4.5 4.5 4.5 0 0 0 4.5-4.5 4.5 4.5 0 0 0 -4.5-4.5zm0 .75a3.75 3.75 0 0 1 3.75 3.75 3.75 3.75 0 0 1 -3.75 3.75 3.75 3.75 0 0 1 -3.75-3.75 3.75 3.75 0 0 1 3.75-3.75z"/><path d="m6.366 7a.358.397 0 0 0 -.366.396v4.208a.358.397 0 0 0 .536.343l1.643-1.052 1.641-1.052a.358.397 0 0 0 0-.686l-1.64-1.052-1.644-1.052a.358.397 0 0 0 -.17-.053z"/></g></svg>

<svg height="16" width="16" xmlns="http://www.w3.org/2000/svg">
    <path d="M15.703 0c-.338-.001-.974.066-1.69.171-.864.127-1.458.87-2.16 1.05C6.16 2.683 2.305 5.18.993 9.129c-.438 1.319-.28 2.8-.062 3.518.33 1.084 1.932 1.666 3.347 2.17.778.278.312.997 1.48 1.114.226.023.452.041.677.055.735.046 2.519-.027 3.107-.126 2.112-.355 3.821-1.307 4.899-2.729.789-1.04 1.282-2.453.965-2.768-.112-.113-.237-.068-.436.155-.421.475-1.244 1.005-1.995 1.318-.485.196-1.388.335-1.893.266l.148-.513.332-.45c1.289-.116 2.425-.861 3.101-1.788.644-.9 1.095-2.221 1.114-3.263.008-.466-.01-.597-.096-.682a.222.222 0 0 0-.064-.051c-.06-.025-.12.036-.309.251-.95 1.056-2.41 2.087-3.554 2.706l-.586-.364.203-.524c.522-.306 1.234-.716 1.72-1.048 1.66-1.144 2.672-3.177 2.889-5.8.036-.434.027-.522-.055-.553A.747.747 0 0 0 15.703 0z" fill="#d81b60"/>
    <path d="M14.239.145c-.92.127-2.001.317-2.772.515-.198.051-.395.104-.589.159-5.376 1.518-7.463 4.5-8.729 8.31-.438 1.319-.981 3.15-.762 3.869.258.848-.472 1.462.44 1.945.253.134.533.256.84.365.854.305 2.151.543 3.435.648a20 20 0 0 0 6.484-8.114c-.213.132-.624.358-.832.47l-.586-.364.202-.525c.523-.305 1.235-.715 1.721-1.047l.07-.052A20 20 0 0 0 14.24.145z" fill="#fd5450"/>
    <path d="M11.13.755a22.764 22.764 0 0 0-3.29 1.158C4.1 3.575 3.335 5.807 2.324 8.85 2.058 9.652.06 10.912.013 11.718c-.03.517-.008.963.078 1.245.272.895.894 1.565 1.897 2.057A16 16 0 0 0 11.13.755z" fill="#ff9e21"/>
    <path d="M8.077 1.81C4.212 3.471 1.535 6.023.503 9.13a10.582 10.582 0 0 0-.497 2.815A12 12 0 0 0 8.077 1.81z" fill="#fdd835"/>
    <g fill="#f4f4f7">
        <path d="M7.5 5A4.5 4.5 0 0 0 3 9.5 4.5 4.5 0 0 0 7.5 14 4.5 4.5 0 0 0 12 9.5 4.5 4.5 0 0 0 7.5 5zm0 .75a3.75 3.75 0 0 1 3.75 3.75 3.75 3.75 0 0 1-3.75 3.75A3.75 3.75 0 0 1 3.75 9.5 3.75 3.75 0 0 1 7.5 5.75z"/>
        <path d="M6.366 7A.358.397 0 0 0 6 7.396v4.208a.358.397 0 0 0 .536.343l1.643-1.052L9.82 9.843a.358.397 0 0 0 0-.686L8.18 8.105 6.536 7.053A.358.397 0 0 0 6.366 7z"/>
    </g>
</svg>
